X:1
T:James Gibb editions
T:Art thou weary, art thou languid - Barnby
%%score [ ( 1 2 ) ( 3 4 ) ]
L:1/8
Q:1/4=160
M:3/2
K:Bb
V:1 treble nm="Midi_74"
V:2 treble 
V:3 bass nm="Midi_74"
V:4 bass 
V:1
"^John Mason Neale\n(1818-66)""^Art thou weary, art thou languid""^85. 83""^Joseph Barnby\n(1838-96)" D2 D2 | %1
 D4"^1" G4 G2 A2 | (B4 G4) d4 || c6 B2 A2 A2 | A12 || d2 c2 B2 A2 B2 G2 | (G4 ^F4) D4- || %7
 D4 ^F4 =E4 | D12 || G12 | ^F12 |] %11
V:2
 D2 D2 | B,4 D4 E2 E2 | (D4 G4) F4 || (E4 G2) G2 G2 G2 | (G4- ^F8) || =F2 F2 F2 F2 E2 E2 | %6
 D8 D4- || D4 ^C4 C4 | D12 || D12 | D12 |] %11
V:3
"^1 Art thou weary, art thou languid, \nArt thou sore distress'd? \n\"Come to me,\" saith One, \"and, coming, \nBe at rest!\" \n\n2 Hath he marks to lead me to him, \nIf he be my Guide? \n\"In his feet and hands are wound-prints, \nAnd his side.\" \n\n3 Is there diadem, as Monarch, \nThat his brow adorns? \n“Yea, a crown, in very surety,\nBut of thorn.\" \n\n4 If I find him, if I follow, \nWhat his guerdon here? \n\"Many a sorrow, many a labour, \nMany a tear.\"" D,2 D,2 | %1
 G,4 B,4 C2 C2 | B,8 =B,4 || (C4 E2) D2 C2 ^C2 | D12 || %5
 D2"^5 If I still hold closely to him, \nWhat hath he at last? \n\"Sorrow vanquished, labour ended, \nJordan passed.\" \n\n6 If I ask him to receive me, \nWill he say me nay? \n\"Not till earth, and not till heaven \nPass away.\" \n\n7 Finding, following, keeping, struggling, \nIs he sure to bless? \n\"Saints, apostles, prophets, martyrs, \nAnswer, 'Yes.'\" \n" D2 D2 D2 C2 C2 | %6
 (B,4 A,4) ^F,4 || (G,4- B,4) [G,B,]4 | [^F,A,]12 || B,12 | A,12 |] %11
V:4
 D,2 D,2 | G,,4 G,,4 G,2 G,2 | G,8 G,,4 || C,6 D,2 E,2 E,2 | (D,8 !courtesy!=C,4) || %5
 B,,2 B,,2 B,,2 B,,2 C,2 C,2 | D,8 C,4 || B,,4 G,,8 | D,12 || G,,12 | D,12 |] %11

